X:131
T:Lather Away the Wattle O
R:reel
M:4/4
K:D
A2|: d2A2 F2A2| d3d d2f2| e2d2 c2d2| e2f2 g2fg|
  | a2f2 g2e2| d2c2 A2F2| G2B2 A2G2|1 F2D2 D2 A2:|2 F2D2 D3z|
  |: f2ff f2f2| g2g6| f2ff f2a2| g2f2 e2fg|
  | a2f2 g2e2| d2c2 A2F2| G2B2 A2G2|1 F2D2 D3z :|2 F2D2 D2 A2|
